docs/img/not-like.svg

<svg width="24" height="22" viewBox="0 0 24 22" fill="none" xmlns="http://www.w3.org/2000/svg">
<path fill-rule="evenodd" clip-rule="evenodd" d="M0.788535 11.9897C0.788535 11.186 1.04558 10.4899 1.55949 9.90132C1.41903 9.49002 1.34913 9.13503 1.3503 8.83571C1.32208 8.12553 1.52301 7.48546 1.95277 6.91545C1.79415 6.39226 1.79415 5.84557 1.95277 5.27589C2.09273 4.74314 2.34522 4.30415 2.70958 3.95844C2.62578 2.91188 2.85461 2.06621 3.39639 1.42137C3.99464 0.711394 4.91464 0.346831 6.15771 0.328177L6.66219 0.328177L7.72751 0.328177L7.96585 0.328177C8.58241 0.328177 9.25508 0.400786 9.98405 0.54556C10.7123 0.690579 11.2804 0.826175 11.6868 0.952147C12.0933 1.07812 12.6562 1.26295 13.3756 1.50552C14.525 1.90769 15.2632 2.11304 15.5902 2.12242C15.8332 2.1318 16.0434 2.22287 16.2209 2.39592C16.3985 2.56877 16.4872 2.77658 16.4872 3.01954L16.4872 12.004C16.4872 12.2375 16.4031 12.4408 16.2348 12.6137C16.0666 12.7866 15.8657 12.8824 15.6322 12.9011C15.408 12.9198 15.053 13.1954 14.567 13.7281C14.0811 14.2608 13.6093 14.8261 13.1513 15.4241C12.5158 16.2369 12.0439 16.7976 11.7356 17.1059C11.5674 17.2742 11.4227 17.4983 11.3011 17.7788C11.1798 18.0591 11.0978 18.2856 11.0558 18.4585C11.0135 18.6313 10.9507 18.9138 10.8663 19.3065C10.8012 19.6708 10.7427 19.9559 10.6913 20.1614C10.6398 20.3671 10.5487 20.61 10.4178 20.8904C10.2871 21.1706 10.128 21.4042 9.94115 21.591C9.76343 21.7686 9.55336 21.8574 9.31045 21.8574C8.88035 21.8574 8.49512 21.8084 8.15373 21.7102C7.81268 21.6122 7.53246 21.4907 7.31272 21.3459C7.09293 21.201 6.90613 21.012 6.75188 20.7782C6.59798 20.5447 6.48575 20.3343 6.41555 20.1475C6.34564 19.9607 6.28948 19.727 6.24716 19.4468C6.20548 19.1664 6.18167 18.9561 6.1773 18.816C6.17288 18.6759 6.17018 18.4935 6.17018 18.2694C6.17018 17.9143 6.21437 17.5591 6.30327 17.2042C6.39233 16.8491 6.48064 16.5689 6.56936 16.3631C6.65821 16.1577 6.78693 15.8958 6.95508 15.5783C6.98301 15.5223 7.0299 15.4382 7.09509 15.326C7.16024 15.2139 7.21218 15.111 7.24915 15.0176C7.28645 14.9241 7.32386 14.812 7.36117 14.6812L3.47882 14.6812C2.74999 14.6812 2.11934 14.415 1.58674 13.8821C1.05521 13.3492 0.788535 12.7186 0.788535 11.9897ZM22.3176 12.8854L18.281 12.8854C18.0381 12.8854 17.8279 12.7967 17.6503 12.6191C17.4729 12.4415 17.3841 12.2313 17.3841 11.9884L17.3841 3.01757C17.3841 2.7749 17.4728 2.56459 17.6503 2.38687C17.828 2.2096 18.0381 2.12074 18.281 2.12074L22.3176 2.12074C22.5605 2.12074 22.7708 2.2096 22.9485 2.38687C23.126 2.56459 23.2148 2.77495 23.2148 3.01757L23.2148 11.9884C23.2148 12.2313 23.126 12.4416 22.9485 12.6191C22.771 12.7966 22.5607 12.8854 22.3176 12.8854ZM20.5237 3.91498C20.2807 3.91498 20.0705 4.00138 19.893 4.17424C19.7152 4.34714 19.6266 4.55962 19.6266 4.81195C19.6266 5.05491 19.7154 5.26523 19.893 5.44265C20.0705 5.62021 20.2807 5.70912 20.5237 5.70912C20.776 5.70912 20.9886 5.62021 21.1614 5.44265C21.3343 5.26518 21.4207 5.05486 21.4207 4.81195C21.4207 4.55962 21.3343 4.34709 21.1614 4.17424C20.9886 4.00138 20.776 3.91498 20.5237 3.91498Z" fill="black" fill-opacity="0.26"/>
</svg>

<svg width="24" height="22" viewBox="0 0 24 22" fill="none" xmlns="http://www.w3.org/2000/svg"><path fill-rule="evenodd" clip-rule="evenodd" d="M.789 11.99c0-.804.257-1.5.77-2.089-.14-.411-.21-.766-.209-1.065-.028-.71.173-1.35.603-1.92a2.883 2.883 0 010-1.64c.14-.533.392-.972.757-1.318-.084-1.046.145-1.892.686-2.537C3.995.711 4.915.347 6.158.328h1.808c.616 0 1.29.073 2.018.218.728.145 1.296.28 1.703.406.406.126.97.311 1.689.554 1.149.402 1.887.607 2.214.616.243.01.453.1.63.274.178.173.267.38.267.624v8.984a.846.846 0 01-.252.61.92.92 0 01-.603.287c-.224.019-.579.294-1.065.827a25.724 25.724 0 00-1.416 1.696c-.635.813-1.107 1.374-1.415 1.682a2.148 2.148 0 00-.435.673c-.121.28-.203.507-.245.68-.042.172-.105.455-.19.848-.065.364-.123.649-.175.854a4.173 4.173 0 01-.273.73c-.13.28-.29.513-.477.7a.862.862 0 01-.63.266c-.43 0-.816-.049-1.157-.147a3.071 3.071 0 01-.841-.364 1.966 1.966 0 01-.561-.568 3.269 3.269 0 01-.336-.63 3.54 3.54 0 01-.169-.701 6.03 6.03 0 01-.07-.631c-.004-.14-.007-.322-.007-.547 0-.355.044-.71.133-1.065.09-.355.178-.635.266-.84a11.58 11.58 0 01.526-1.038 2.382 2.382 0 00.266-.645H3.48c-.729 0-1.36-.266-1.892-.799-.532-.533-.798-1.163-.798-1.892zm21.529.895H18.28a.862.862 0 01-.63-.266.863.863 0 01-.267-.63V3.017c0-.243.089-.453.266-.631a.863.863 0 01.631-.266h4.037c.242 0 .453.089.63.266a.863.863 0 01.267.63v8.971a.862.862 0 01-.267.631.862.862 0 01-.63.266zm-1.794-8.97a.873.873 0 00-.631.26.854.854 0 00-.266.637c0 .243.088.453.266.63a.862.862 0 00.63.267.855.855 0 00.638-.266.873.873 0 00.26-.631.867.867 0 00-.26-.638.867.867 0 00-.637-.259z" fill="#000" fill-opacity=".26"/></svg>
